extra/images/fields/field-speed-up-00.svg

<?xml version="1.0" encoding="UTF-8" standalone="no"?>
<!-- Created with Inkscape (http://www.inkscape.org/) -->

<svg
   xmlns:dc="http://purl.org/dc/elements/1.1/"
   xmlns:cc="http://creativecommons.org/ns#"
   xmlns:rdf="http://www.w3.org/1999/02/22-rdf-syntax-ns#"
   xmlns:svg="http://www.w3.org/2000/svg"
   xmlns="http://www.w3.org/2000/svg"
   xmlns:sodipodi="http://sodipodi.sourceforge.net/DTD/sodipodi-0.dtd"
   xmlns:inkscape="http://www.inkscape.org/namespaces/inkscape"
   width="32px"
   height="32px"
   id="svg3505"
   sodipodi:version="0.32"
   inkscape:version="0.48.5 r10040"
   sodipodi:docname="field-speed-up-00.svg"
   inkscape:output_extension="org.inkscape.output.svg.inkscape"
   version="1.1">
  <defs
     id="defs3507">
    <inkscape:perspective
       sodipodi:type="inkscape:persp3d"
       inkscape:vp_x="0 : 16 : 1"
       inkscape:vp_y="0 : 1000 : 0"
       inkscape:vp_z="32 : 16 : 1"
       inkscape:persp3d-origin="16 : 10.666667 : 1"
       id="perspective3513" />
    <inkscape:perspective
       id="perspective4690"
       inkscape:persp3d-origin="372.04724 : 350.78739 : 1"
       inkscape:vp_z="744.09448 : 526.18109 : 1"
       inkscape:vp_y="0 : 1000 : 0"
       inkscape:vp_x="0 : 526.18109 : 1"
       sodipodi:type="inkscape:persp3d" />
    <inkscape:perspective
       id="perspective2415"
       inkscape:persp3d-origin="372.04724 : 350.78739 : 1"
       inkscape:vp_z="744.09448 : 526.18109 : 1"
       inkscape:vp_y="0 : 1000 : 0"
       inkscape:vp_x="0 : 526.18109 : 1"
       sodipodi:type="inkscape:persp3d" />
    <inkscape:perspective
       id="perspective5551"
       inkscape:persp3d-origin="372.04724 : 350.78739 : 1"
       inkscape:vp_z="744.09448 : 526.18109 : 1"
       inkscape:vp_y="0 : 1000 : 0"
       inkscape:vp_x="0 : 526.18109 : 1"
       sodipodi:type="inkscape:persp3d" />
    <inkscape:perspective
       id="perspective5594"
       inkscape:persp3d-origin="372.04724 : 350.78739 : 1"
       inkscape:vp_z="744.09448 : 526.18109 : 1"
       inkscape:vp_y="0 : 1000 : 0"
       inkscape:vp_x="0 : 526.18109 : 1"
       sodipodi:type="inkscape:persp3d" />
  </defs>
  <sodipodi:namedview
     id="base"
     pagecolor="#ffffff"
     bordercolor="#666666"
     borderopacity="1.0"
     inkscape:pageopacity="0.0"
     inkscape:pageshadow="2"
     inkscape:zoom="16.375"
     inkscape:cx="16"
     inkscape:cy="16"
     inkscape:current-layer="layer1"
     showgrid="true"
     inkscape:grid-bbox="true"
     inkscape:document-units="px"
     objecttolerance="4"
     gridtolerance="4"
     guidetolerance="4"
     inkscape:window-width="1024"
     inkscape:window-height="741"
     inkscape:window-x="0"
     inkscape:window-y="2"
     inkscape:object-paths="true"
     inkscape:object-nodes="true"
     inkscape:snap-bbox="true"
     inkscape:snap-guide="true"
     showguides="true"
     inkscape:guide-bbox="true"
     inkscape:window-maximized="1">
    <inkscape:grid
       type="xygrid"
       id="grid3515"
       units="px"
       visible="true"
       enabled="true"
       spacingx="1px"
       spacingy="1px" />
    <sodipodi:guide
       orientation="1,0"
       position="15.5,14.451495"
       id="guide3315" />
    <sodipodi:guide
       orientation="1,0"
       position="16.5,14.18633"
       id="guide3317" />
  </sodipodi:namedview>
  <metadata
     id="metadata3510">
    <rdf:RDF>
      <cc:Work
         rdf:about="">
        <dc:format>image/svg+xml</dc:format>
        <dc:type
           rdf:resource="http://purl.org/dc/dcmitype/StillImage" />
        <dc:title>Skull 00</dc:title>
        <dc:date>2010-05-06</dc:date>
        <dc:creator>
          <cc:Agent>
            <dc:title>Andreas Neudecker &lt;zapyon@gmx.net&gt;</dc:title>
          </cc:Agent>
        </dc:creator>
        <dc:rights>
          <cc:Agent>
            <dc:title>Copyright (C) 2010 by Andreas Neudecker</dc:title>
          </cc:Agent>
        </dc:rights>
        <dc:publisher>
          <cc:Agent>
            <dc:title>Andreas Neudecker</dc:title>
          </cc:Agent>
        </dc:publisher>
        <dc:identifier>skull-00</dc:identifier>
        <dc:description>Poisonous skull.</dc:description>
      </cc:Work>
    </rdf:RDF>
  </metadata>
  <g
     id="layer1"
     inkscape:label="Layer 1"
     inkscape:groupmode="layer">
    <g
       id="g3197"
       transform="matrix(-1,0,0,1,32,0)">
      <rect
         y="0"
         x="-8.8817842e-16"
         height="31.999994"
         width="32"
         id="rect5494"
         style="fill:white;fill-opacity:1;fill-rule:nonzero;stroke:none" />
      <g
         id="g3228">
        <path
           style="fill:white;fill-opacity:1;fill-rule:nonzero;stroke:none"
           d="M 0,0 0,32 32,32 32,0 0,0 z M 1,1 31,1 31,31 1,31 1,1 z"
           id="rect5481"
           inkscape:connector-curvature="0" />
      </g>
      <path
         sodipodi:nodetypes="cccccccccc"
         id="rect2448"
         d="M 1,1 1,31 31,31 31,1 1,1 z M 2,2 30,2 30,30 2,30 2,2 z"
         style="fill:black;fill-opacity:1;fill-rule:nonzero;stroke:none"
         inkscape:connector-curvature="0" />
      <path
         id="path2414"
         d="m 12.125,5.28125 c -0.174674,0 -0.33348,0.033805 -0.5,0.0625 1.412179,0.2433515 2.5,1.4561741 2.5,2.9375 0,1.0596289 -0.544805,1.997481 -1.375,2.53125 0.114375,-0.03149 0.220783,-0.05908 0.34375,-0.0625 0.114597,-0.0025 0.233678,0.0084 0.34375,0.03125 l 0.34375,0 c 0.809213,-0.537647 1.34375,-1.4562945 1.34375,-2.5 0,-1.6559996 -1.344,-3 -3,-3 z M 14.09375,10.75 c -0.05607,0.0016 -0.104738,0.02156 -0.15625,0.03125 l 0.5,0 C 14.327428,10.758377 14.208347,10.747494 14.09375,10.75 z m 5.03125,0.03125 c 0.275565,-2.22e-4 0.545867,0.07546 0.78125,0.21875 l 5,3 c 0.707615,0.431472 0.931472,1.354884 0.5,2.0625 -0.186267,0.305478 -0.468562,0.513637 -0.78125,0.625 0.656693,0.23653 1.403712,-0.0058 1.78125,-0.625 0.431472,-0.707616 0.207615,-1.631028 -0.5,-2.0625 l -5,-3 C 20.670867,10.856713 20.400565,10.781028 20.125,10.78125 l -1,0 z m -6.9375,0.3125 c -0.16595,0.06331 -0.354138,0.09395 -0.53125,0.125 0.125863,0.02033 0.244426,0.05836 0.375,0.0625 0.03305,-0.04024 0.0548,-0.09065 0.09375,-0.125 0.01119,-0.01034 0.01976,-0.02126 0.03125,-0.03125 0.0113,-0.0094 0.01968,-0.0222 0.03125,-0.03125 z m 4.5625,2.6875 10.4375,10.4375 c 0.586803,0.586803 0.586803,1.538196 0,2.125 -0.163816,0.163816 -0.357721,0.271398 -0.5625,0.34375 0.528759,0.186819 1.139513,0.07924 1.5625,-0.34375 0.586803,-0.586804 0.586803,-1.538197 0,-2.125 L 17.75,13.78125 l -1,0 z M 8,14.75 c -0.1598371,0.0017 -0.318947,0.04217 -0.46875,0.09375 l 3.40625,0.6875 0.03125,-0.1875 -2.5625,-0.53125 C 8.2702083,14.775069 8.1364266,14.748587 8,14.75 z m 6.03125,0.5625 -0.4375,2.25 c -0.107084,0.549871 -0.503659,0.959196 -1,1.125 l 0.25,0.0625 c 0.8106,0.152585 1.59233,-0.377874 1.75,-1.1875 L 14.875,16.15625 14.03125,15.3125 z m 5.6875,5.6875 -3.78125,1.28125 0.65625,2.625 c 0.198833,0.778763 -0.246471,1.567203 -1,1.8125 0.281316,0.10653 0.592654,0.111317 0.90625,0.03125 0.811168,-0.207108 1.300857,-1.032582 1.09375,-1.84375 L 16.9375,22.28125 19.96875,21.25 19.71875,21 z"
         style="fill:gray;fill-opacity:1;fill-rule:nonzero;stroke:none"
         inkscape:connector-curvature="0" />
      <path
         sodipodi:nodetypes="csssssssscccssccccccccsccccsccccsccccscsc"
         id="path2416"
         d="m 10.123652,5.207099 c -1.6560002,0 -2.9999992,1.344 -2.9999992,3 0,1.656 1.343999,3 2.9999992,3 0.376204,0 0.7306,-0.06087 1.0625,-0.1875 -0.01157,0.0091 -0.01995,0.02186 -0.03125,0.03125 -0.01149,0.01 -0.02006,0.02091 -0.03125,0.03125 -0.09981,0.08803 -0.176132,0.199908 -0.25,0.3125 -0.01287,0.02113 -0.01941,0.04068 -0.03125,0.0625 -0.0492,0.08303 -0.123293,0.156811 -0.15625,0.25 -0.04856,0.137294 -0.05492,0.265268 -0.0625,0.40625 l -0.6874992,3.34375 -3.53125,-0.71875 c -0.544167,-0.149723 -1.119761,0.02042 -1.5000005,0.4375 -0.3802391,0.417075 -0.5117591,1.003207 -0.3125,1.53125 0.1992593,0.528045 0.6890175,0.906848 1.2500005,0.96875 l 4.9999992,1 c 0.8106,0.152586 1.59233,-0.377874 1.75,-1.1875 l 0.4375,-2.25 3.3125,3.3125 -3.6875,1.21875 c -0.763557,0.24056 -1.203684,1.03829 -1,1.8125 l 1,4 c 0.207107,0.811168 1.032582,1.300857 1.84375,1.09375 0.811168,-0.207107 1.300857,-1.032582 1.09375,-1.84375 l -0.65625,-2.625 3.78125,-1.28125 5.34375,5.34375 c 0.586803,0.586803 1.538197,0.586803 2.125,0 0.586803,-0.586803 0.586803,-1.538197 0,-2.125 l -10.4375,-10.4375 1.96875,0 4.625,2.78125 c 0.707615,0.431472 1.631028,0.207615 2.0625,-0.5 0.431472,-0.707615 0.207615,-1.631028 -0.5,-2.0625 l -5,-3 c -0.235383,-0.143287 -0.505685,-0.218972 -0.78125,-0.21875 l -5.6875,0 c -0.110072,-0.02287 -0.229153,-0.03376 -0.34375,-0.03125 -0.122967,0.0034 -0.229375,0.03101 -0.34375,0.0625 0.830195,-0.533769 1.375,-1.4716211 1.375,-2.53125 0,-1.656 -1.344,-3 -3,-3 z"
         style="fill:black;fill-opacity:1;fill-rule:nonzero;stroke:none"
         inkscape:connector-curvature="0" />
      <path
         sodipodi:nodetypes="cccccccccc"
         id="rect3222"
         d="M 3,3 3,29 29,29 29,3 3,3 z M 4,4 28,4 28,28 4,28 4,4 z"
         style="fill:black;fill-opacity:1;fill-rule:nonzero;stroke:none"
         inkscape:connector-curvature="0" />
    </g>
  </g>
</svg>

<?xml version="1.0" encoding="UTF-8" standalone="no"?>
<!-- Created with Inkscape (http://www.inkscape.org/) -->
<svg
   xmlns:dc="http://purl.org/dc/elements/1.1/"
   xmlns:cc="http://creativecommons.org/ns#"
   xmlns:rdf="http://www.w3.org/1999/02/22-rdf-syntax-ns#"
   xmlns:svg="http://www.w3.org/2000/svg"
   xmlns="http://www.w3.org/2000/svg"
   xmlns:sodipodi="http://sodipodi.sourceforge.net/DTD/sodipodi-0.dtd"
   xmlns:inkscape="http://www.inkscape.org/namespaces/inkscape"
   width="32px"
   height="32px"
   id="svg3505"
   sodipodi:version="0.32"
   inkscape:version="0.46"
   sodipodi:docname="field-speed-up-00.svg"
   inkscape:output_extension="org.inkscape.output.svg.inkscape">
  <defs
     id="defs3507">
    <inkscape:perspective
       sodipodi:type="inkscape:persp3d"
       inkscape:vp_x="0 : 16 : 1"
       inkscape:vp_y="0 : 1000 : 0"
       inkscape:vp_z="32 : 16 : 1"
       inkscape:persp3d-origin="16 : 10.666667 : 1"
       id="perspective3513" />
    <inkscape:perspective
       id="perspective4690"
       inkscape:persp3d-origin="372.04724 : 350.78739 : 1"
       inkscape:vp_z="744.09448 : 526.18109 : 1"
       inkscape:vp_y="0 : 1000 : 0"
       inkscape:vp_x="0 : 526.18109 : 1"
       sodipodi:type="inkscape:persp3d" />
    <inkscape:perspective
       id="perspective2415"
       inkscape:persp3d-origin="372.04724 : 350.78739 : 1"
       inkscape:vp_z="744.09448 : 526.18109 : 1"
       inkscape:vp_y="0 : 1000 : 0"
       inkscape:vp_x="0 : 526.18109 : 1"
       sodipodi:type="inkscape:persp3d" />
    <inkscape:perspective
       id="perspective5551"
       inkscape:persp3d-origin="372.04724 : 350.78739 : 1"
       inkscape:vp_z="744.09448 : 526.18109 : 1"
       inkscape:vp_y="0 : 1000 : 0"
       inkscape:vp_x="0 : 526.18109 : 1"
       sodipodi:type="inkscape:persp3d" />
    <inkscape:perspective
       id="perspective5594"
       inkscape:persp3d-origin="372.04724 : 350.78739 : 1"
       inkscape:vp_z="744.09448 : 526.18109 : 1"
       inkscape:vp_y="0 : 1000 : 0"
       inkscape:vp_x="0 : 526.18109 : 1"
       sodipodi:type="inkscape:persp3d" />
  </defs>
  <sodipodi:namedview
     id="base"
     pagecolor="#ffffff"
     bordercolor="#666666"
     borderopacity="1.0"
     inkscape:pageopacity="0.0"
     inkscape:pageshadow="2"
     inkscape:zoom="14.375"
     inkscape:cx="16"
     inkscape:cy="16"
     inkscape:current-layer="layer1"
     showgrid="true"
     inkscape:grid-bbox="true"
     inkscape:document-units="px"
     objecttolerance="4"
     gridtolerance="4"
     guidetolerance="4"
     inkscape:window-width="641"
     inkscape:window-height="678"
     inkscape:window-x="0"
     inkscape:window-y="37"
     inkscape:object-paths="true"
     inkscape:object-nodes="true"
     inkscape:snap-bbox="true"
     inkscape:snap-guide="true"
     showguides="true"
     inkscape:guide-bbox="true">
    <inkscape:grid
       type="xygrid"
       id="grid3515"
       units="px"
       visible="true"
       enabled="true"
       spacingx="1px"
       spacingy="1px" />
    <sodipodi:guide
       orientation="1,0"
       position="15.5,14.451495"
       id="guide3315" />
    <sodipodi:guide
       orientation="1,0"
       position="16.5,14.18633"
       id="guide3317" />
  </sodipodi:namedview>
  <metadata
     id="metadata3510">
    <rdf:RDF>
      <cc:Work
         rdf:about="">
        <dc:format>image/svg+xml</dc:format>
        <dc:type
           rdf:resource="http://purl.org/dc/dcmitype/StillImage" />
        <dc:title>Skull 00</dc:title>
        <dc:date>2010-05-06</dc:date>
        <dc:creator>
          <cc:Agent>
            <dc:title>Andreas Neudecker &lt;zapyon@gmx.net&gt;</dc:title>
          </cc:Agent>
        </dc:creator>
        <dc:rights>
          <cc:Agent>
            <dc:title>Copyright (C) 2010 by Andreas Neudecker</dc:title>
          </cc:Agent>
        </dc:rights>
        <dc:publisher>
          <cc:Agent>
            <dc:title>Andreas Neudecker</dc:title>
          </cc:Agent>
        </dc:publisher>
        <dc:identifier>skull-00</dc:identifier>
        <dc:description>Poisonous skull.</dc:description>
      </cc:Work>
    </rdf:RDF>
  </metadata>
  <g
     id="layer1"
     inkscape:label="Layer 1"
     inkscape:groupmode="layer">
    <g
       id="g3197">
      <rect
         y="0"
         x="-8.8817842e-16"
         height="31.999994"
         width="32"
         id="rect5494"
         style="fill:#ffffff;fill-opacity:1;fill-rule:nonzero;stroke:none;stroke-width:2;stroke-linecap:butt;stroke-linejoin:miter;stroke-miterlimit:4;stroke-dasharray:none;stroke-dashoffset:0;stroke-opacity:1" />
      <g
         id="g3228">
        <path
           style="fill:#ffffff;fill-opacity:1;fill-rule:nonzero;stroke:none;stroke-width:2;stroke-linecap:butt;stroke-linejoin:miter;stroke-miterlimit:4;stroke-dasharray:none;stroke-dashoffset:0;stroke-opacity:1"
           d="M 0,0 L 0,32 L 32,32 L 32,0 L 0,0 z M 1,1 L 31,1 L 31,31 L 1,31 L 1,1 z"
           id="rect5481" />
      </g>
      <path
         sodipodi:nodetypes="cccccccccc"
         id="rect2448"
         d="M 1,1 L 1,31 L 31,31 L 31,1 L 1,1 z M 2,2 L 30,2 L 30,30 L 2,30 L 2,2 z"
         style="opacity:1;fill:#000000;fill-opacity:1;fill-rule:nonzero;stroke:none;stroke-width:4;stroke-linecap:round;stroke-linejoin:round;stroke-miterlimit:4;stroke-dasharray:none;stroke-dashoffset:0;stroke-opacity:1" />
      <path
         id="path2414"
         d="M 12.125 5.28125 C 11.950326 5.28125 11.79152 5.3150547 11.625 5.34375 C 13.037179 5.5871015 14.125 6.7999241 14.125 8.28125 C 14.125 9.3408789 13.580195 10.278731 12.75 10.8125 C 12.864375 10.781005 12.970783 10.753423 13.09375 10.75 C 13.208347 10.747494 13.327428 10.758377 13.4375 10.78125 L 13.78125 10.78125 C 14.590463 10.243603 15.125 9.3249555 15.125 8.28125 C 15.125 6.6252504 13.781 5.28125 12.125 5.28125 z M 14.09375 10.75 C 14.037677 10.751561 13.989012 10.771562 13.9375 10.78125 L 14.4375 10.78125 C 14.327428 10.758377 14.208347 10.747494 14.09375 10.75 z M 19.125 10.78125 C 19.400565 10.781028 19.670867 10.856713 19.90625 11 L 24.90625 14 C 25.613865 14.431472 25.837722 15.354884 25.40625 16.0625 C 25.219983 16.367978 24.937688 16.576137 24.625 16.6875 C 25.281693 16.92403 26.028712 16.681663 26.40625 16.0625 C 26.837722 15.354884 26.613865 14.431472 25.90625 14 L 20.90625 11 C 20.670867 10.856713 20.400565 10.781028 20.125 10.78125 L 19.125 10.78125 z M 12.1875 11.09375 C 12.02155 11.157063 11.833362 11.187703 11.65625 11.21875 C 11.782113 11.239084 11.900676 11.277112 12.03125 11.28125 C 12.064296 11.241008 12.08605 11.190602 12.125 11.15625 C 12.136186 11.14591 12.144756 11.134995 12.15625 11.125 C 12.167548 11.11561 12.175933 11.102804 12.1875 11.09375 z M 16.75 13.78125 L 27.1875 24.21875 C 27.774303 24.805553 27.774303 25.756946 27.1875 26.34375 C 27.023684 26.507566 26.829779 26.615148 26.625 26.6875 C 27.153759 26.874319 27.764513 26.766737 28.1875 26.34375 C 28.774303 25.756946 28.774303 24.805553 28.1875 24.21875 L 17.75 13.78125 L 16.75 13.78125 z M 8 14.75 C 7.8401629 14.751656 7.681053 14.792172 7.53125 14.84375 L 10.9375 15.53125 L 10.96875 15.34375 L 8.40625 14.8125 C 8.2702083 14.775069 8.1364266 14.748587 8 14.75 z M 14.03125 15.3125 L 13.59375 17.5625 C 13.486666 18.112371 13.090091 18.521696 12.59375 18.6875 L 12.84375 18.75 C 13.65435 18.902585 14.43608 18.372126 14.59375 17.5625 L 14.875 16.15625 L 14.03125 15.3125 z M 19.71875 21 L 15.9375 22.28125 L 16.59375 24.90625 C 16.792583 25.685013 16.347279 26.473453 15.59375 26.71875 C 15.875066 26.82528 16.186404 26.830067 16.5 26.75 C 17.311168 26.542892 17.800857 25.717418 17.59375 24.90625 L 16.9375 22.28125 L 19.96875 21.25 L 19.71875 21 z "
         style="fill:#808080;fill-opacity:1;fill-rule:nonzero;stroke:none;stroke-width:2;stroke-linecap:butt;stroke-linejoin:miter;stroke-miterlimit:4;stroke-dasharray:none;stroke-dashoffset:0;stroke-opacity:1" />
      <path
         sodipodi:nodetypes="csssssssscccssccccccccsccccsccccsccccscsc"
         id="path2416"
         d="M 10.123652,5.207099 C 8.4676518,5.207099 7.1236528,6.551099 7.1236528,8.207099 C 7.1236528,9.863099 8.4676518,11.207099 10.123652,11.207099 C 10.499856,11.207099 10.854252,11.146225 11.186152,11.019599 C 11.174585,11.028653 11.1662,11.041459 11.154902,11.050849 C 11.143408,11.060844 11.134838,11.071759 11.123652,11.082099 C 11.023842,11.170127 10.94752,11.282007 10.873652,11.394599 C 10.860786,11.415725 10.854246,11.435278 10.842402,11.457099 C 10.793199,11.540131 10.719109,11.61391 10.686152,11.707099 C 10.637597,11.844393 10.631233,11.972367 10.623652,12.113349 L 9.9361528,15.457099 L 6.4049028,14.738349 C 5.8607358,14.588626 5.2851418,14.758773 4.9049023,15.175849 C 4.5246632,15.592924 4.3931432,16.179056 4.5924023,16.707099 C 4.7916616,17.235144 5.2814198,17.613947 5.8424028,17.675849 L 10.842402,18.675849 C 11.653002,18.828435 12.434732,18.297975 12.592402,17.488349 L 13.029902,15.238349 L 16.342402,18.550849 L 12.654902,19.769599 C 11.891345,20.010159 11.451218,20.807889 11.654902,21.582099 L 12.654902,25.582099 C 12.862009,26.393267 13.687484,26.882956 14.498652,26.675849 C 15.30982,26.468742 15.799509,25.643267 15.592402,24.832099 L 14.936152,22.207099 L 18.717402,20.925849 L 24.061152,26.269599 C 24.647955,26.856402 25.599349,26.856402 26.186152,26.269599 C 26.772955,25.682796 26.772955,24.731402 26.186152,24.144599 L 15.748652,13.707099 L 17.717402,13.707099 L 22.342402,16.488349 C 23.050017,16.919821 23.97343,16.695964 24.404902,15.988349 C 24.836374,15.280734 24.612517,14.357321 23.904902,13.925849 L 18.904902,10.925849 C 18.669519,10.782562 18.399217,10.706877 18.123652,10.707099 L 12.436152,10.707099 C 12.32608,10.684226 12.206999,10.673343 12.092402,10.675849 C 11.969435,10.679272 11.863027,10.706854 11.748652,10.738349 C 12.578847,10.20458 13.123652,9.2667279 13.123652,8.207099 C 13.123652,6.551099 11.779652,5.207099 10.123652,5.207099 z"
         style="fill:#000000;fill-opacity:1;fill-rule:nonzero;stroke:none;stroke-width:2;stroke-linecap:butt;stroke-linejoin:miter;stroke-miterlimit:4;stroke-dasharray:none;stroke-dashoffset:0;stroke-opacity:1" />
      <path
         sodipodi:nodetypes="cccccccccc"
         id="rect3222"
         d="M 3,3 L 3,29 L 29,29 L 29,3 L 3,3 z M 4,4 L 28,4 L 28,28 L 4,28 L 4,4 z"
         style="opacity:1;fill:#000000;fill-opacity:1;fill-rule:nonzero;stroke:none;stroke-width:4;stroke-linecap:round;stroke-linejoin:round;stroke-miterlimit:4;stroke-dasharray:none;stroke-dashoffset:0;stroke-opacity:1" />
    </g>
  </g>
</svg>
